X: 15
T:Lord McDonald`s Reel
B:David Lyth
D:Micheal Coleman
M:C
L:1/8
K:G
[|DG (3GGG BG (3GGG| c2 Bc AGEG| DG ~G2 BG ~G2| DEDC B,G, G,2|
DG (3GGG BG(3GGG| c2 Bc AGEG| BcBA GFGE| DEGA BG G2||
||Bd (3ddd dBgB| defg aged| Bd (3ddd dBgB| ABcA BG G2|
Bd (3ddd dBgB| defg aged| Bd ~d2  ~g3 e| dBAc BGGB||
|| dgb/a/g agbg| dgbg ageg| dgb/a/g agbg| dedc BGGB|
dgb/a/g agbg| dgbg ageg| b/a/g{a}gf gfeB| dega bg g2||
Bd (3ddd dBgB|defg aged| Bd(3ddd dBgB| ABcA BG G2|
Bd (3ddd dBgB| defg aged| Bd ~d2  ~g3 e| dBAc BG G2|]
